X:1
T:Hark the Herald Angels Sing
T:Felix Mendelssohn (1840)
T:Charles Wesley (1739)
T:SATB - Traditional Caroling Arrangement
T: Public domain
Z:Public domain
%%score 1 2 3 4
L:1/8
M:4/4
K:G
V:1 treble nm="Soprano" snm="S."
V:2 treble nm="Alto" snm="A."
V:3 bass nm="Tenor" snm="T."
V:4 bass nm="Baritone" snm="Bar."
V:1
 D2 G2 G3 F | G2 B2 (B2 A2) | d2 d2 d3 c | B2 A2 B4 | D2 G2 G3 F | G2 B2 B2 A2 | d2 A2 A3 F | %7
w: hark the her- ald|an- gels sing *||||||
 F2 E2 D4 | d2 d2 d2 G2 | c2 B2 B2 A2 | d2 d2 d2 G2 | c2 B2 B2 A2 | e2 e2 e2 d2 | c2 B2 c4 | %14
w: |||||||
 A2 Bc d3 G | G2 A2 B4 | e3 e e2 d2 | c2 B2 c4 | A2 Bc d3 G | G2 A2 G4 |] %20
w: ||||||
V:2
 B,2 D2 D3 D | D2 G2 (G2 F2) | G2 G2 A3 A | G2 F2 G4 | B,2 D2 D3 D | D2 D2 ^C4 | D2 E2 F3 D | %7
 D2 ^C2 D4 | D2 G2 G2 G2 | A2 G2 G2 F2 | D2 B2 B2 G2 | A2 G2 G2 F2 | G2 G2 G2 ^G2 | A2 ^G2 A4 | %14
 F2 F2 G3 G | G2 A2 B4 | G3 G G2 ^G2 | A2 ^G2 A4 | F2 F2 G3 G | E2 F2 D4 |] %20
V:3
 G,2 B,2 B,3 A, | G,2 D2 D4 | D2 D2 E3 E | D2 D2 D4 | G,2 B,2 B,3 A, | G,2 G,2 G,4 | %6
w: do mi mi re|do sol sol|sol sol la la|sol sol sol|do mi mi re|do do do|
 F,2 A,2 D3 A, | A,2 A,2 F,4 | B,2 B,2 D2 D2 | D2 D2 D4 | B,2 B,2 D2 D2 | D2 D2 D4 | E2 E2 C2 D2 | %13
w: ti re sol re|re re ti|mi mi sol sol|sol sol sol|mi mi sol sol|sol sol sol|la la fa sol|
 E2 E2 E4 | D2 C2 B,3 B, | B,2 D2 D4 | E3 E C2 D2 | E2 E2 E4 | D2 C2 B,3 B, | B,2 C2 B,4 |] %20
w: la la la|sol fa mi mi|mi sol sol|la la fa sol|la la la|sol fa mi mi|mi fa m|
V:4
 G,,2 G,2 G,3 D, | B,,2 G,,2 D,4 | B,,2 B,,2 C,3 C, | D,2 D,2 G,4 | G,,2 G,2 G,3 D, | %5
 B,,2 G,,2 E,4 | D,2 ^C,2 D,3 D, | F,,2 A,,2 D,4 | G,2 G,2 B,2 B,2 | F,2 G,2 D,4 | %10
 G,2 G,2 B,2 B,2 | F,2 G,2 D,4 | C,2 C,2 C,2 B,,2 | A,,2 E,2 A,4 | D,2 D,2 G,3 G, | E,2 D,2 G,4 | %16
 C,3 C, C,2 B,,2 | A,,2 E,2 A,4 | D,2 D,2 G,3 G, | E,2 D,2 G,4 |] %20

